app/dist/common/images/lindsay.svg

<svg height="18" viewBox="0 0 18 18" width="18" xmlns="http://www.w3.org/2000/svg"><path d="m0 0h18v18h-18z" fill="#f0f3fa"/><path d="m14 4.05v-.05h-10v5.05zm-10 6.79 10-6.52v1.1l-10 6.1zm.02 3.16h.54l9.44-7.06v-1.15zm9.98-6.75-6.23 6.75h6.23z" fill="#9f2843"/></svg>

<!-- by TradingView --><svg width="18" height="18" viewBox="0 0 18 18" xmlns="http://www.w3.org/2000/svg"><path fill="#F0F3FA" d="M0 0h18v18H0z"/><path d="M14 4.05V4H4v5.05l10-5ZM4 10.84l10-6.52v1.1l-10 6.1v-.68ZM4.02 14h.54L14 6.94V5.79L4.02 14ZM14 7.25 7.77 14H14V7.25Z" fill="#9F2843"/></svg>
